src/assets/images/icon_close.svg

<svg width="12" height="12" viewBox="0 0 12 12" fill="none" xmlns="http://www.w3.org/2000/svg">
<g id="surface1541">
<path id="Vector" d="M10.9903 0.322967C10.8167 0.32644 10.6465 0.402828 10.525 0.527828L5.99721 5.05561L1.46943 0.527828C1.34443 0.399356 1.17082 0.32644 0.990264 0.32644C0.71943 0.32644 0.476374 0.493107 0.372208 0.743107C0.271514 0.993107 0.330541 1.2813 0.524986 1.47227L5.05276 6.00005L0.524986 10.5278C0.351375 10.6945 0.28193 10.9445 0.340958 11.1771C0.403458 11.4098 0.587485 11.5938 0.820124 11.6563C1.05276 11.7153 1.30276 11.6459 1.46943 11.4723L5.99721 6.94449L10.525 11.4723C10.6917 11.6459 10.9417 11.7153 11.1743 11.6563C11.4069 11.5938 11.591 11.4098 11.6535 11.1771C11.7125 10.9445 11.643 10.6945 11.4694 10.5278L6.94165 6.00005L11.4694 1.47227C11.6673 1.2813 11.7298 0.989634 11.6222 0.73269C11.518 0.479217 11.268 0.316023 10.9903 0.322967Z" fill="#29333A"/>
</g>
</svg>

<svg width="12" height="12" fill="none" xmlns="http://www.w3.org/2000/svg"><path d="M10.99.323a.676.676 0 0 0-.465.205L5.997 5.056 1.47.528A.67.67 0 0 0 .372.743c-.1.25-.041.538.153.73L5.053 6 .525 10.528a.673.673 0 0 0-.184.65.681.681 0 0 0 .48.478.673.673 0 0 0 .648-.184l4.528-4.528 4.528 4.528a.673.673 0 0 0 .65.184.681.681 0 0 0 .478-.479.673.673 0 0 0-.184-.65L6.942 6l4.527-4.528A.667.667 0 0 0 10.99.323z" fill="#29333A"/></svg>
